X:1
T:Pianti lunga stagione
T:Rafaello Rontani
T:Source :Varie Musiche libro 60---Roma---G.B.Robletti--1622. Editor : André Vierendeels (22/11/16).
T:Notes : Original clefs : C1, F4 Editorial accidentals above the staff Figures in BC are notated in original print m 38 in S : half rest is missing in original print
T:Pianti lunga stagione
T:©
T:©
T:©
T:©
T:©
T:©
T:©
T:©
T:©
T:©
T:©
T:©
C:Rafaello Rontani
Z:©
%%score 1 2
L:1/8
Q:1/4=95
M:4/4
K:C
V:1 treble nm="Soprano" snm="S"
V:2 bass nm="BC"
V:1
 A6 ^G2 | ^G2 GG A2 A2 | z2 E4 ^FF | G4 G4 | z4 G2 GG | A3 E ^F2 F2 | z2 AA B2 B^F | ^G4 G2 B2 | %8
w: Pian- ti|lun- ga sta- gio- ne|ar- si'e ge-|la- i,|mà ta- ci-|tur- no'a- man- te,|le mie pe- ne'a- mo-|ro- se, nel|
 BBBc ^G2 B2- | B2 BB B4 | A8 | z4 e4- | e4 dddd |"^#" c4 B4 | z2 EE E2 E^F | D4 D4 | z AAA d3 B | %17
w: cen- tro del mio cor chiu-|* si'e ce- la-|i,|ar-|* si mà fu'l mio|fo- co,|si pro- fon- do'ed oc-|cul- to,|che non fu no- to'a|
 B^GGG A4 | B3 d ddde | c3 B- c2 AA | A2 AA _B4- | BFFE E4 | D8 | z2 F2 A4- | AGGF F2 E2 | %25
w: voi che l'ac- cen- de-|ste, e fu del a- mor|mi- o _ con- sa-|pe- vo- le so-|* lo'a- mor ed' i-|o,|sof- fer-|* si'o- gni tor- nen- to,|
 GGGG G/G/F FE | E4 E4 | c2 cc c3 B | c2 c2 z2 c2- | cd e2 f3 A | c2 e4 dd | d8 | c8 | G2 GE A3 D | %34
w: ch'a- ni- ma tor- men- ta- t'ha nel in-|fer- no,|ma fra'i mar- tir d'a-|mo- re, non|_ po- ter dir, oi-|me, pa- ru'il piu|fie-|ro|an- zi l'in- fer- no'an|
 E2 E2 z2 AG | G2 FE F2 F2 | cc c2 AA A2- | AG G>F G2 G2 | z4 z2 _BB | _B2 BA A2 A2 | z2 d2 decB | %41
w: co- ra, e men|cru- do'e pe- no- so|che'l si- len- tio lag- giu|_ non ha ri- cet- to,|e fra|l'al- me do- len- ti|s'o- de- no pur al-|
 ^c2 e4 ee | e8 | d8 | A4 A4 | z FFE F2 F2 | z2 AA B2 G^F | G2 G2 c4 | _BBBA A2 A2 | c4 ^cccc | %50
w: men gri- da'e la-|men-|ti.|Tac- qui|mà nel mio volt- to|un pal- lor si ve-|de- a, che|nel co- lor di mor- te,|e- ra del mio mo-|
 d4 B4- | B2 AA A4 | G8 |[K:F] z2 BB B2 B^F | G2 G2 z2 dd | _e6 cc | c4 c4 | z2 cc d2 dA | %58
w: rir nun-|* tio fa- con|do.|Quel non chie- der a-|i- ta, quel- la|lin- gua tre-|man- te,|l'es- ser pri- vo di|
 =B2 B2 z d d>c | ccGA B2 BA | A2 c4 Bc | G8 | A8 | z2 d2 f4 | d2 dd d3 d | _e3 B c4 | c4 z2 AA | %67
w: vo- ce ap- pun- to|quel- le, e- ran tit- te d'a-|mor vo- ci'e fa-|vel-|le,|ma voi|bel- la ca- gion de|miei tor- men-|ti co- me|
 A2 AA c2 G2- | G2 GF G2 G2 | z2 cB B2 BA | B2 BA AG^FE | ^F2 FA BB c>c | dc_eB c4 | B8 | z4 A4 | %75
w: fred- da'in a- mor' sord'-|* a l'a- man- te,|for- se mai non u-|di- ste le ta- ci- te que-|re- le, d'in- na- mo- ra- to|cor che mu- to par-|la,|vid-|
 A2 ^FF F3 E | ^F4 F2 dc | c2 cB B3 A- | B3 G AA>AB | c2 G2 _A3 A | G4 G4 | z4 z2 EF | %82
w: di ben i- o tal'|ho- ra, ch'a miei|cu- pi- di sguar- di,|_ ri- spos' an- cho di|voi cor- te- se'il|guar- do,|mà fra|
 G2 cG A2 A2 | z2 AB c2 Bc | d2 d2 z2 DE | F2 EF G2 G2 | z BBB c3 G | A3 c d3 A | =B4 B4 | %89
w: me dis- s'all' ho- ra,|non è guar- do'a- mo-|ro- so, non è|sguar- do pie- to- so,|ch'a- mor non puo sen-|tir s'a- mor non|ve- de,|
 z2 dd _e2 cc | c4 z f_ed | d8 | c8 ||[K:C] z4 A4 | A4 c2 cc | c2 c2 B2 BA | A3 ^G A2 A2 | %97
w: e non mer- ta pie-|ta, chi non la|chie-|de,|dun-|que poi ch'io mi|sen- to mi- se- ra-|men- te'a- man- do,|
 z GGG G4 | F2 FF F3 E | E4 E4 | z BBB c3 c | d2 d2 z GGG | F3 E E2 E2 | z GGG G3 B | BB B4 G2 | %105
w: con- dot- t'o- mai|del- la mia vi- t'a|ri- va|poi che l'in- cen- dio|mi- o, che nel si-|len- tio'as- co- si,|o- mai sa- rà nel|ce- ner mio pa-|
 G4 A4 | z2 cc c2 cB | c2 c2 z2 EE | F2 EF G2 G2 | z2 cc c2 cB | c2 c2 z2 e2- | e2 dd d2 d2 | %112
w: le- se,|poi che men- tre'io- mi|tac- qui, quest' el|duol che m'ac- co- ra,|poi che men- tre'io mi|tac- qui, al-|* tri non tac- qui,|
 z2 B2 BABG | G3 E E3 D | E4 E4 | z BBB c3 ^c | d3 c ccc_B | _B2 Bd BAAG | ^F2 F2 z2 e2- | e6 dc | %120
w: e re- se'il mio si-|len- tio'al- trui lo-|qua- ce,|e gl'è ben tem- p'o-|mai, ch'af- flit- to'e mo- ri-|bon- do, io di- ch'à voi mia|vi- ta, ec-|* cho ch'io|
 B2 c2 A4 | z8 |] %122
w: mo- * ro!||
V:2
 A,,8 | A,,8 | A,,8 | G,,8 |"^5 6" C,8- |"^#" C,4 D,4 |"^5 6" D,8 |"^#" E,8 |"^#" E,4 E,4 | %9
"^6""^4 #" D,4 E,4 | C,8 | A,8 | ^F,8 | ^F,4 ^G,4 | ^G,4 ^C,4 |"^#" D,8 |"^#" D,8 | %17
"^#""^7 6" E,4 F,4 | E,8 | A,,8 | A,,8 | G,,4 A,,4 |"^#" D,8 | D,8 | ^C,8 | ^C,6 D,2 |"^4 #" E,8 | %27
 A,,8 | A,,8 |"^4" A,,4 A,,4 | A,,4 F,,4 | G,,8 | C,8 |"^7 6" C,4 B,,4 |"^#""^#" A,,4 A,,4- | %35
 A,,4 D,4 | A,,8 | F,,4 C,4 | C,4 _B,,4- | B,,4 D,4- | D,4 D,4 | A,,4 G,,4 | A,,8 | D,8 | D,8 | %45
 D,8 | D,8 |"^(b)" E,8 |"^(b)" E,4 F,4 | F,4 E,4 | B,,4 B,,4 | C,4 D,4 | G,,8 |[K:F] G,,8 | %54
 G,,4 G,,4 | G,,8 | F,,8 | F,,8 | G,,4 G,4 | E,8 | F,4 D,4 | _E,8 | D,6 C,2 | B,,8 | B,,8 | %65
 B,,4 F,,4 | F,,8 | F,,8 | F,,4 C,4 | C,4 C,4 | G,,8 | D,4 G,2 F,2 | B,,2 G,,2 F,,4 | B,,8 | F,8 | %75
 D,8 | D,8 | D,4 G,4 | G,4 F,4 | _E,6 F,2 |"^4 #" G,8 | C,8 | C,4 F,,4 | F,,8 | B,,8 | B,,4 _E,4- | %86
 E,4 _E,4 | F,4 ^F,4 | G,4 G,,4 | G,,4 G,,4 | F,,8 | G,,8 | C,8 ||[K:C] A,,8 | A,,8 | A,,8 | A,,8 | %97
 A,,8 | D,8 |"^4 #" E,8 |"^#" E,4 A,,4 | G,,4 G,,4 | G,,4 C,4 | C,4 B,,4 |"^6" B,,8 | %105
"^7 6 #" E,4 D,4 | A,,8 | A,,8 | D,4 C,4 | A,,8 | A,,8 | F,,4 G,,4 | G,,4 G,,4 |"^7 6" C,4 F,4 | %114
"^4 #" E,8 | E,4 A,,4 |"^#" D,8 |"^b" G,,4 G,,4 |"^#" D,8 | ^C,4 D,4 |"^4 #" E,8 | A,,8 |] %122

